public/svg/operational_excellence/analytic.svg

<svg width="212" height="80" viewBox="0 0 212 80" fill="none" xmlns="http://www.w3.org/2000/svg">
<path d="M0 52C0 49.7909 1.79086 48 4 48H32C34.2091 48 36 49.7909 36 52V80H0V52Z" fill="#8C68F2" fill-opacity="0.5"/>
<path d="M44 28C44 25.7909 45.7909 24 48 24H76C78.2091 24 80 25.7909 80 28V80H44V28Z" fill="#8C68F2" fill-opacity="0.5"/>
<path d="M88 44C88 41.7909 89.7909 40 92 40H120C122.209 40 124 41.7909 124 44V80H88V44Z" fill="#8C68F2" fill-opacity="0.6"/>
<path d="M132 12C132 9.79086 133.791 8 136 8H164C166.209 8 168 9.79086 168 12V80H132V12Z" fill="#8C68F2" fill-opacity="0.5"/>
<path d="M176 36C176 33.7909 177.791 32 180 32H208C210.209 32 212 33.7909 212 36V80H176V36Z" fill="#8C68F2" fill-opacity="0.6"/>
<g clip-path="url(#clip0_281_54143)">
<path d="M154.405 8.34286C154.405 10.9988 152.252 13.1519 149.596 13.1519C146.94 13.1519 144.787 10.9988 144.787 8.34286V8.19786C144.787 5.54192 146.94 3.38885 149.596 3.38885C152.252 3.38885 154.405 5.54192 154.405 8.19786V8.34286Z" fill="#8C68F2"/>
<path d="M149.669 5.3422C151.287 5.3422 152.598 6.65355 152.598 8.2712C152.598 9.88884 151.287 11.2002 149.669 11.2002C148.052 11.2002 146.74 9.88884 146.74 8.2712C146.74 6.65355 148.052 5.3422 149.669 5.3422Z" fill="white"/>
</g>
<defs>
<clipPath id="clip0_281_54143">
<rect width="11" height="11" fill="white" transform="matrix(1 0 0 -1 144 14)"/>
</clipPath>
</defs>
</svg>

<svg xmlns="http://www.w3.org/2000/svg" width="212" height="80" fill="none" viewBox="0 0 212 80"><path fill="#8c68f2" fill-opacity=".5" d="M0 52a4 4 0 0 1 4-4h28a4 4 0 0 1 4 4v28H0zm44-24a4 4 0 0 1 4-4h28a4 4 0 0 1 4 4v52H44z"/><path fill="#8c68f2" fill-opacity=".6" d="M88 44a4 4 0 0 1 4-4h28a4 4 0 0 1 4 4v36H88z"/><path fill="#8c68f2" fill-opacity=".5" d="M132 12a4 4 0 0 1 4-4h28a4 4 0 0 1 4 4v68h-36z"/><path fill="#8c68f2" fill-opacity=".6" d="M176 36a4 4 0 0 1 4-4h28a4 4 0 0 1 4 4v44h-36z"/><g clip-path="url(#a)"><path fill="#8c68f2" d="M154.405 8.343a4.809 4.809 0 1 1-9.618 0v-.145a4.809 4.809 0 1 1 9.618 0z"/><path fill="#fff" d="M149.669 5.342a2.929 2.929 0 1 1 0 5.858 2.929 2.929 0 0 1 0-5.858"/></g><defs><clipPath id="a"><path fill="#fff" d="M144 14h11V3h-11z"/></clipPath></defs></svg>
